X: 153
T:Miss Gordon of Bellies Reel
B:William Marshall A Collection Of Strathspey Reels (1781)
C:William Marshall
L:1/8
M:C|
O:Scotland
R:Reel
Z:Clark Bernst + Richard Robinson
%%Page:10 - 1
F:http://richardrobinson.tunebook.org.uk/tune/3996
%%TBL:{"version":1,"type":"tune","id":"3996"}
K:D
%%staves {1 2}
V:1
g | \
(!trill!fef).d ecdA | Bdgf !trill!e2 (Ag) | (!trill!fef)d ecdA | BdAG !trill!F2 D ::
G | \
!trill!F2 AF G2 BG | !trill!F2 (AF) (G/F/E/D/) (CE) | !trill!F2 AF G2 BG | Edce d2 D :|
V:2 middle=d clef=bass
L:1/4
z/ | dd'af | gbaA | dDAF | GAdD/ :: \
z/ | ddgg | dd=cc | ddgG | gad'd/ :|

